sharp/svg/art_track.svg

<svg xmlns="http://www.w3.org/2000/svg" width="24" height="24"><path fill="none" d="M0 0h24v24H0V0z"/><path d="M22 13h-8v-2h8v2zm0-6h-8v2h8V7zm-8 10h8v-2h-8v2zM12 7v10H2V7h10zm-1.5 8l-2.25-3-1.75 2.26-1.25-1.51L3.5 15h7z" fill="currentColor"/></svg>

<?xml version="1.0" encoding="utf-8"?>
<!-- Generator: Adobe Illustrator 19.1.0, SVG Export Plug-In . SVG Version: 6.00 Build 0)  -->
<svg version="1.1" xmlns="http://www.w3.org/2000/svg" xmlns:xlink="http://www.w3.org/1999/xlink" x="0px" y="0px" width="24px"
	 height="24px" viewBox="0 0 24 24" enable-background="new 0 0 24 24" xml:space="preserve">
<g id="Bounding_Boxes">
	<path fill="none" d="M0,0h24v24H0V0z"/>
</g>
<g id="Sharp" fill="currentColor">
	<path d="M22,13h-8v-2h8V13z M22,7h-8v2h8V7z M14,17h8v-2h-8V17z M12,7v10H2V7H12z M10.5,15l-2.25-3L6.5,14.26l-1.25-1.51L3.5,15
		H10.5z"/>
</g>
</svg>
